modules/entypo/icons/calendar.svg

<svg height="1000px" width="900px" xmlns="http://www.w3.org/2000/svg">
  <g>
    <path d="M800 150c28 0 51.667 9.667 71 29c19.333 19.333 29 43 29 71c0 0 0 600 0 600c0 26.667 -9.667 50 -29 70c-19.333 20 -43 30 -71 30c0 0 -700 0 -700 0c-26.667 0 -50 -10 -70 -30c-20 -20 -30 -43.333 -30 -70c0 0 0 -600 0 -600c0 -28 10 -51.667 30 -71c20 -19.333 43.333 -29 70 -29c0 0 46 0 46 0c0 0 0 100 0 100c0 0 160 0 160 0c0 0 0 -100 0 -100c0 0 290 0 290 0c0 0 0 100 0 100c0 0 160 0 160 0c0 0 0 -100 0 -100c0 0 44 0 44 0c0 0 0 0 0 0m0 700c0 0 0 -400 0 -400c0 0 -700 0 -700 0c0 0 0 400 0 400c0 0 700 0 700 0c0 0 0 0 0 0m-540 -800c0 0 0 170 0 170c0 0 -70 0 -70 0c0 0 0 -170 0 -170c0 0 70 0 70 0c0 0 0 0 0 0m450 0c0 0 0 170 0 170c0 0 -70 0 -70 0c0 0 0 -170 0 -170c0 0 70 0 70 0c0 0 0 0 0 0" />
  </g>
</svg>

<svg height="1000" width="900" xmlns="http://www.w3.org/2000/svg"><path d="M800 150c28 0 51.667 9.667 71 29s29 43 29 71v600c0 26.667-9.667 50-29 70s-43 30-71 30H100c-26.667 0-50-10-70-30S0 876.667 0 850V250c0-28 10-51.667 30-71s43.333-29 70-29h46v100h160V150h290v100h160V150h44m0 700V450H100v400h700M260 50v170h-70V50h70m450 0v170h-70V50h70"/></svg>
